X:975
T: Christina Reid's (with piano acc.)
C: BB
L: 1/8
M: 6/8
R: jig
Q: 1/4=160
V: 1 program 1 73 %flute
V: 2 bass volume = 50 program 1 01 m=D
K: A
[V:1] E|"A"EAc "Bm"BAF|"A"EAc "D"dcd|"A"ecA "Bm"fdB|"A"ecA "E"B2G|
[V:2] z|A,,2[ACE]B,,2[BDF]|A,,2[ACE]D,2[AFD]|A,,2[ACE]B,,2[BDF]|A,,2[ACE]E,2[EGB]|
%
[V:1] "A"EAc "Bm"BAF|"A"Ace "D"agf|"A"ecA "D"dAF|"E"EFG "A"A2 :|
[V:2] A,,2[ACE]B,,2[BDF]|A,,2[ACE]D,2[AFD]|A,,2[ACE]D,2[AFD]|E,2[EGB][A,,2E,2C2]:|
%
[V:1] c/d/|"A"ece "D"agf|"A"efe "F#m"ecA|"D"dcB "A"cBA|"E"FGA B2 c/d/|
[V:2] z|A,,2[ACE]D,2[AFD]|A,,2[ACE]F,,2[FAC]|D,2[AFD]A,,2[ACE]|E,2[EGB]B,,2[EGB]|
%
[V:1] "A"ece "D"agf|"A"efe ecA|"F#m"FAc "Bm"BAF|"E"EFG "A"A2 :|
[V:2] A,,2[ACE]D,2[AFD]|A,,2[ACE]E,,2[ACE]|F,,2[FAC]B,,2[BDF]|E,2[EGB][A,,2E,2C2]:|

%%%%%%%%%%%%%%%%%%%%%

